assets/logos/prada.svg

<svg width="127" height="21" viewBox="0 0 127 21" fill="none" xmlns="http://www.w3.org/2000/svg">
<g clip-path="url(#clip0_1_4404)">
<path fill-rule="evenodd" clip-rule="evenodd" d="M0 0.591732L1.91951 2.76177V18.6444L0.496854 20.7226L9.20973 20.736L7.63931 18.8237L7.47624 13.1039L15.8773 13.1496C18.4238 12.2997 21.0415 10.4878 21.1672 6.8247C21.1271 3.27485 18.9651 0.998025 16.455 0.545043L0 0.591732ZM7.16493 1.60746V11.811L13.6106 11.8577C15.0773 10.6721 16.1891 9.76411 16.1446 6.91758C16.1236 4.59655 15.6349 2.57253 13.4772 1.60796L7.16493 1.60746ZM25.1994 0.476003L27.119 2.64654V18.5292L25.6963 20.6084L34.4087 20.6208L32.8383 18.7085L32.6752 12.9886H32.7101L41.7113 20.6853L49.1814 20.6243L42.3636 14.7126H36.672L34.666 12.9996L41.0763 13.0343C43.6227 12.1845 46.2399 10.3726 46.3662 6.70947C46.3265 3.16012 44.1645 0.882792 41.654 0.430307L25.1994 0.476003ZM32.3639 1.49173V11.6952L38.8096 11.7419C40.2767 10.5563 41.3881 9.64839 41.3436 6.80136C41.3226 4.48082 40.8338 2.45631 38.6762 1.49173H32.3639ZM56.3731 0.453155H63.8857L73.6649 18.6444C74.0882 20.0491 75.354 19.8757 76.1989 20.4916H66.7305L68.1532 20.0456L68.0642 18.6911L65.6192 14.7663L57.3065 14.813L55.5286 18.5992C55.4693 19.0299 55.0097 19.3567 55.3507 19.8916L56.0178 20.5378L51.9282 20.4454L53.7066 19.8916L60.4182 5.71708V4.74704L57.5825 0.954812L56.3731 0.453155ZM57.8321 13.5171L61.2847 6.96427L64.8794 13.4804L57.8321 13.5171ZM107.174 0.49289H114.686L124.466 18.6842C124.889 20.0888 126.155 19.9155 127 20.5314H117.531L118.954 20.0843L118.865 18.7299L116.42 14.806L108.108 14.8527L106.33 18.638C106.27 19.0696 105.811 19.3964 106.151 19.9314L106.818 20.5776L102.729 20.4852L104.508 19.9314L111.219 5.75682V4.78628L108.384 0.994548L107.174 0.49289ZM108.633 13.5573L112.086 7.0045L115.681 13.5196L108.633 13.5573ZM78.797 0.263916L92.1801 0.337923C96.4896 1.34968 99.2317 3.98909 100.082 8.59342L100.046 12.1845C99.2603 16.2871 96.6857 19.1178 92.1447 20.5507L78.7258 20.5885L78.7239 20.1539C80.7639 19.9994 80.9269 19.766 80.9322 18.5521V2.18859C80.9093 1.29107 80.7304 0.732295 78.7612 0.670705L78.797 0.263916ZM86.4043 1.66409L86.3914 19.3681C88.1564 19.3741 89.6877 19.54 90.5527 19.0974C92.5129 18.1999 93.4234 16.8216 93.5066 15.5267L93.4597 5.07287C93.4602 3.40052 91.6497 2.21988 90.6044 1.91243C89.8569 1.63478 88.3654 1.62336 86.4043 1.66409Z" fill="white" stroke="white" stroke-width="0.718154" stroke-miterlimit="2.613"/>
</g>
<defs>
<clipPath id="clip0_1_4404">
<rect width="127" height="21" fill="white"/>
</clipPath>
</defs>
</svg>

<svg xmlns="http://www.w3.org/2000/svg" width="127" height="21" fill="none" viewBox="0 0 127 21"><g clip-path="url(#clip0_1_4404)"><path fill="#fff" fill-rule="evenodd" stroke="#fff" stroke-miterlimit="2.613" stroke-width=".718" d="m0 .592 1.92 2.17v15.882L.497 20.723l8.713.013-1.57-1.912-.164-5.72 8.401.046c2.547-.85 5.164-2.662 5.29-6.325-.04-3.55-2.202-5.827-4.712-6.28zm7.165 1.015v10.204l6.446.047c1.466-1.186 2.578-2.094 2.534-4.94-.021-2.321-.51-4.345-2.668-5.31zM25.199.476l1.92 2.17V18.53l-1.423 2.08 8.713.012-1.57-1.912-.164-5.72h.035l9.001 7.696 7.47-.06-6.817-5.912h-5.692L34.666 13l6.41.034c2.547-.85 5.164-2.661 5.29-6.325C46.326 3.16 44.164.883 41.654.43zm7.165 1.016v10.203l6.446.047c1.467-1.186 2.578-2.094 2.534-4.94-.021-2.321-.51-4.346-2.668-5.31zM56.374.453h7.512l9.779 18.191c.423 1.405 1.689 1.232 2.534 1.848H66.73l1.422-.446-.089-1.355-2.445-3.925-8.312.047-1.778 3.786c-.06.43-.52.758-.178 1.293l.667.646-4.09-.093 1.779-.553 6.711-14.175v-.97L57.583.955zm1.458 13.064 3.453-6.553 3.594 6.516zM107.174.493h7.512l9.78 18.191c.423 1.405 1.689 1.232 2.534 1.847h-9.469l1.423-.447-.089-1.354-2.445-3.924-8.312.047-1.778 3.785c-.06.432-.519.758-.179 1.293l.667.647-4.089-.093 1.779-.554 6.711-14.174v-.97L108.384.994zm1.459 13.064 3.453-6.552 3.595 6.515zM78.797.264 92.18.338c4.31 1.012 7.052 3.651 7.902 8.255l-.036 3.592c-.786 4.102-3.36 6.933-7.901 8.366l-13.42.038-.001-.435c2.04-.155 2.203-.388 2.208-1.602V2.19c-.022-.9-.202-1.458-2.17-1.52zm7.607 1.4-.013 17.704c1.765.006 3.297.172 4.162-.27 1.96-.898 2.87-2.276 2.954-3.571L93.46 5.073c0-1.672-1.81-2.853-2.856-3.16-.747-.278-2.239-.29-4.2-.249Z" clip-rule="evenodd"/></g><defs><clipPath id="clip0_1_4404"><path fill="#fff" d="M0 0h127v21H0z"/></clipPath></defs></svg>
